X: 1
T:Jig Runrig, The
C:Fergie MacDonald
B:Fergie's Collection (1998)
Z:Nigel Gatherer
M:6/8
R:Jig
L:1/8
K:D
f/e/|d2 d BAA|FAA BAA|Bdd AAA|fee efe|
d2 d BAA|FAA BAA|Bdd Aff|edd d2:|]
g|faa eff|daa caa|Bdd AAA|fee e2 g|
faa eff|daa caa|Bdd Aff|edd d2 g|
faa eff|daa caa|Bdd AAA|fee efe|
d2 d BAA|FAA BAA|Bdd Aff|edd d2|]
